X: 1723
T: THE HANDSOME PLOWBOY
M:2/4
L:1/16
B:O'NEILL'S 1723
N:"collected by J. O'Neill"
Z:Transcribed by A. LEE WORMAN
K:A
E2|A2A2 AcBA|G2B2 BdcB|A2A2 Acea|gfed cBAG|
A2A2 AcBA|G2B2 BdcB|Acea gfed|c2A2 A2:|
|:(3e-f-g|aece aece|afdf afdf|bgeg bgeg|agfe dcBA|
ceAe ceAe|dfBf dfBf|cegf edBG|A2A2 A2:|


